Sweet-Rainbow/icons/distributor-logo-deepin.svg

<?xml version="1.0" encoding="UTF-8" standalone="no"?>
<!-- Generator: Gravit.io -->

<svg
   xmlns:dc="http://purl.org/dc/elements/1.1/"
   xmlns:cc="http://creativecommons.org/ns#"
   xmlns:rdf="http://www.w3.org/1999/02/22-rdf-syntax-ns#"
   xmlns:svg="http://www.w3.org/2000/svg"
   xmlns="http://www.w3.org/2000/svg"
   xmlns:sodipodi="http://sodipodi.sourceforge.net/DTD/sodipodi-0.dtd"
   xmlns:inkscape="http://www.inkscape.org/namespaces/inkscape"
   style="isolation:isolate"
   viewBox="0 0 36 36"
   width="48"
   height="48"
   version="1.1"
   id="svg9"
   sodipodi:docname="distributor-logo-deepin.svg"
   inkscape:version="0.92.4 (5da689c313, 2019-01-14)">
  <metadata
     id="metadata15">
    <rdf:RDF>
      <cc:Work
         rdf:about="">
        <dc:format>image/svg+xml</dc:format>
        <dc:type
           rdf:resource="http://purl.org/dc/dcmitype/StillImage" />
        <dc:title></dc:title>
      </cc:Work>
    </rdf:RDF>
  </metadata>
  <defs
     id="defs13" />
  <sodipodi:namedview
     pagecolor="#ffffff"
     bordercolor="#666666"
     borderopacity="1"
     objecttolerance="10"
     gridtolerance="10"
     guidetolerance="10"
     inkscape:pageopacity="0"
     inkscape:pageshadow="2"
     inkscape:window-width="640"
     inkscape:window-height="480"
     id="namedview11"
     showgrid="false"
     inkscape:zoom="29.365243"
     inkscape:cx="25.325443"
     inkscape:cy="32"
     inkscape:current-layer="svg9"
     units="px" />
  <linearGradient
     id="_lgradient_23"
     x1="0"
     y1="0.5"
     x2="1"
     y2="0.5"
     gradientTransform="matrix(46.808,0,0,47,0.564,0.5)"
     gradientUnits="userSpaceOnUse">
    <stop
       offset="0%"
       stop-opacity="1"
       style="stop-color:rgb(178,254,250)"
       id="stop2" />
    <stop
       offset="98.26086956521739%"
       stop-opacity="1"
       style="stop-color:rgb(14,210,247)"
       id="stop4" />
  </linearGradient>
  <g
     id="g826"
     transform="matrix(0.76595696,0,0,0.76595696,-0.35893112,-0.38295552)">
    <path
       id="path7"
       d="m 32.917,6.952 v 0 C 31.873,6.403 31.47,5.109 32.019,4.064 v 0 C 32.568,3.02 33.862,2.617 34.907,3.166 v 0 c 4.449,2.342 8.042,6.053 10.235,10.577 v 0 c 0.519,1.063 0.078,2.345 -0.984,2.861 v 0 c -1.063,0.517 -2.347,0.074 -2.866,-0.989 v 0 C 39.495,11.904 36.564,8.877 32.917,6.952 Z M 23.817,4.5 v 0 c 1.103,-0.006 1.995,-0.906 1.99,-2.01 v 0 C 25.801,1.386 24.9,0.494 23.797,0.5 v 0 c -5.76,0.03 -11.31,2.18 -15.59,6.03 -4.28,3.86 -7,9.15 -7.63,14.88 v 0 c -0.122,1.098 0.671,2.089 1.77,2.21 v 0 c 1.098,0.121 2.088,-0.672 2.21,-1.77 v 0 c 0.52,-4.75 2.78,-9.15 6.33,-12.34 3.55,-3.2 8.15,-4.98 12.93,-5.01 z M 5.737,31 v 0 C 5.339,29.968 4.179,29.453 3.147,29.85 v 0 c -1.033,0.397 -1.548,1.558 -1.15,2.59 v 0 c 1.91,4.93 5.42,9.08 9.97,11.78 v 0 c 0.949,0.563 2.177,0.249 2.74,-0.7 v 0 c 0.563,-0.949 0.249,-2.177 -0.7,-2.74 v 0 C 10.227,38.54 7.317,35.1 5.737,31 Z m 17.57,12.49 v 0 c -1.104,-0.017 -2.014,0.866 -2.03,1.97 v 0 c -0.017,1.104 0.866,2.013 1.97,2.03 v 0 l 0.66,0.01 c 0.01,0 0.02,0 0.03,0 5.91,0 11.61,-2.23 15.95,-6.24 4.34,-4.01 7.02,-9.52 7.48,-15.41 v 0 c 0.082,-1.098 -0.742,-2.062 -1.84,-2.15 v 0 c -1.099,-0.088 -2.062,0.736 -2.15,1.84 v 0 c -0.38,4.88 -2.6,9.45 -6.2,12.78 -3.6,3.33 -8.32,5.18 -13.22,5.18 z m -4.804,-4.463 c -0.985,-0.36 -1.905,-0.818 -2.772,-1.341 4.307,0.331 9.927,-0.662 13.717,-4.209 0,0 7.226,-5.773 1.999,-15.247 0,0 0.842,3.818 -0.232,6.959 0,0 -1.025,4.171 -5.578,5.412 -6.708,1.828 -14.35,-2.767 -17.545,-5.041 -0.24,-2.338 -0.026,-4.754 0.83,-7.111 1.27,-3.492 3.458,-6.217 6.375,-8.047 -0.729,5.102 -0.153,9.799 0.676,11.767 1.112,2.638 3.245,5.615 7.016,6.01 3.772,0.396 5.851,-3.033 5.851,-3.033 1.935,-2.94 2.238,-7.162 2.208,-7.263 -0.029,-0.103 -0.515,-0.382 -0.515,-0.382 -1.302,5.269 -3.449,6.829 -3.449,6.829 -3.386,3.269 -5.783,1.002 -5.783,1.002 -2.578,-2.768 -0.573,-7.068 -0.573,-7.068 1.009,-3.064 3.751,-7.549 7.084,-9.83 0.555,0.138 1.113,0.223 1.662,0.423 2.017,0.735 3.784,1.844 5.278,3.206 -2.437,0.889 -6.373,2.77 -6.373,2.77 -6.237,2.627 -6.658,6.6 -6.658,6.6 -0.646,4.096 2.604,2.163 2.604,2.163 3.344,-1.629 4.987,-6.506 4.987,-6.506 -1.043,-0.199 -1.865,0.118 -1.865,0.118 -1.336,3.295 -4.059,4.651 -4.059,4.651 -1.072,0.567 -1.321,-0.436 -1.321,-0.436 -0.181,-0.751 0.775,-0.879 0.775,-0.879 1.484,-0.577 2.433,-2.136 2.648,-2.773 0.214,-0.639 0.613,-0.689 0.613,-0.689 2.033,-0.649 3.888,-0.994 3.888,-0.994 2.525,-0.31 6.39,0.894 6.39,0.894 0.867,0.348 1.698,0.609 2.436,0.818 1.417,3.539 1.641,7.77 0.237,11.634 -3.027,8.329 -12.229,12.626 -20.551,9.593 z"
       style="fill:url(#_lgradient_23);fill-rule:evenodd"
       inkscape:connector-curvature="0" />
  </g>
</svg>

<?xml version="1.0" encoding="UTF-8" standalone="no"?><!-- Generator: Gravit.io --><svg xmlns="http://www.w3.org/2000/svg" xmlns:xlink="http://www.w3.org/1999/xlink" style="isolation:isolate" viewBox="0 0 48 48" width="48pt" height="48pt"><linearGradient id="_lgradient_23" x1="0" y1="0.5" x2="1" y2="0.5" gradientTransform="matrix(46.808,0,0,47,0.564,0.5)" gradientUnits="userSpaceOnUse"><stop offset="0%" stop-opacity="1" style="stop-color:rgb(178,254,250)"/><stop offset="98.26086956521739%" stop-opacity="1" style="stop-color:rgb(14,210,247)"/></linearGradient><path d=" M 32.917 6.952 L 32.917 6.952 C 31.873 6.403 31.47 5.109 32.019 4.064 L 32.019 4.064 C 32.568 3.02 33.862 2.617 34.907 3.166 L 34.907 3.166 C 39.356 5.508 42.949 9.219 45.142 13.743 L 45.142 13.743 C 45.661 14.806 45.22 16.088 44.158 16.604 L 44.158 16.604 C 43.095 17.121 41.811 16.678 41.292 15.615 L 41.292 15.615 C 39.495 11.904 36.564 8.877 32.917 6.952 L 32.917 6.952 L 32.917 6.952 L 32.917 6.952 Z  M 23.817 4.5 L 23.817 4.5 C 24.92 4.494 25.812 3.594 25.807 2.49 L 25.807 2.49 C 25.801 1.386 24.9 0.494 23.797 0.5 L 23.797 0.5 C 18.037 0.53 12.487 2.68 8.207 6.53 C 3.927 10.39 1.207 15.68 0.577 21.41 L 0.577 21.41 C 0.455 22.508 1.248 23.499 2.347 23.62 L 2.347 23.62 C 3.445 23.741 4.435 22.948 4.557 21.85 L 4.557 21.85 C 5.077 17.1 7.337 12.7 10.887 9.51 C 14.437 6.31 19.037 4.53 23.817 4.5 L 23.817 4.5 L 23.817 4.5 L 23.817 4.5 Z  M 5.737 31 L 5.737 31 C 5.339 29.968 4.179 29.453 3.147 29.85 L 3.147 29.85 C 2.114 30.247 1.599 31.408 1.997 32.44 L 1.997 32.44 C 3.907 37.37 7.417 41.52 11.967 44.22 L 11.967 44.22 C 12.916 44.783 14.144 44.469 14.707 43.52 L 14.707 43.52 C 15.27 42.571 14.956 41.343 14.007 40.78 L 14.007 40.78 C 10.227 38.54 7.317 35.1 5.737 31 L 5.737 31 L 5.737 31 Z  M 23.307 43.49 L 23.307 43.49 C 22.203 43.473 21.293 44.356 21.277 45.46 L 21.277 45.46 C 21.26 46.564 22.143 47.473 23.247 47.49 L 23.247 47.49 L 23.907 47.5 C 23.917 47.5 23.927 47.5 23.937 47.5 C 29.847 47.5 35.547 45.27 39.887 41.26 C 44.227 37.25 46.907 31.74 47.367 25.85 L 47.367 25.85 C 47.449 24.752 46.625 23.788 45.527 23.7 L 45.527 23.7 C 44.428 23.612 43.465 24.436 43.377 25.54 L 43.377 25.54 C 42.997 30.42 40.777 34.99 37.177 38.32 C 33.577 41.65 28.857 43.5 23.957 43.5 L 23.307 43.49 L 23.307 43.49 Z  M 18.503 39.027 C 17.518 38.667 16.598 38.209 15.731 37.686 C 20.038 38.017 25.658 37.024 29.448 33.477 C 29.448 33.477 36.674 27.704 31.447 18.23 C 31.447 18.23 32.289 22.048 31.215 25.189 C 31.215 25.189 30.19 29.36 25.637 30.601 C 18.929 32.429 11.287 27.834 8.092 25.56 C 7.852 23.222 8.066 20.806 8.922 18.449 C 10.192 14.957 12.38 12.232 15.297 10.402 C 14.568 15.504 15.144 20.201 15.973 22.169 C 17.085 24.807 19.218 27.784 22.989 28.179 C 26.761 28.575 28.84 25.146 28.84 25.146 C 30.775 22.206 31.078 17.984 31.048 17.883 C 31.019 17.78 30.533 17.501 30.533 17.501 C 29.231 22.77 27.084 24.33 27.084 24.33 C 23.698 27.599 21.301 25.332 21.301 25.332 C 18.723 22.564 20.728 18.264 20.728 18.264 C 21.737 15.2 24.479 10.715 27.812 8.434 C 28.367 8.572 28.925 8.657 29.474 8.857 C 31.491 9.592 33.258 10.701 34.752 12.063 C 32.315 12.952 28.379 14.833 28.379 14.833 C 22.142 17.46 21.721 21.433 21.721 21.433 C 21.075 25.529 24.325 23.596 24.325 23.596 C 27.669 21.967 29.312 17.09 29.312 17.09 C 28.269 16.891 27.447 17.208 27.447 17.208 C 26.111 20.503 23.388 21.859 23.388 21.859 C 22.316 22.426 22.067 21.423 22.067 21.423 C 21.886 20.672 22.842 20.544 22.842 20.544 C 24.326 19.967 25.275 18.408 25.49 17.771 C 25.704 17.132 26.103 17.082 26.103 17.082 C 28.136 16.433 29.991 16.088 29.991 16.088 C 32.516 15.778 36.381 16.982 36.381 16.982 C 37.248 17.33 38.079 17.591 38.817 17.8 C 40.234 21.339 40.458 25.57 39.054 29.434 C 36.027 37.763 26.825 42.06 18.503 39.027 Z " fill-rule="evenodd" fill="url(#_lgradient_23)"/></svg>
